X:1
T:6 Mélodies
T:Le lever
T:6 Mélodies
T:5. Le lever
T:Charles Gounod
T:Alfred de Musset
T:OpenScore (CC0)
T:OpenScore (CC0)
T:OpenScore (CC0)
T:OpenScore (CC0)
T:OpenScore (CC0)
T:OpenScore (CC0)
C:Charles Gounod
Z:Alfred de Musset
Z:OpenScore (CC0)
%%score 1 { 2 | ( 3 4 ) }
L:1/8
Q:1/4=135
M:6/8
K:F
V:1 treble nm="Voice"
V:2 treble nm="Piano"
V:3 bass 
V:4 bass 
V:1
"^Allegro" z6 | z6 | z6 | z6 | z6 | z6 | z6 | z6 | z6 |[K:F][K:treble] z2 z z2 F | A2 c d2 c | %11
w: |||||||||As-|sez dor- mir ma|
 A3 F2 z | z B c d e d | c3 A z c | c2 G c2 e | c6- | c z z z2!p! c | c2 d e2 f | f3 A z A | %19
w: bel- le|Ta ca- vale I- sa-|bel- le Hen-|\- nit sous tes bal-|cons|_ Vois|les pi- queurs a-|ler- tes Et|
 d3 d c B | d3 d z d | f2 c{cd} c2 B | B6- | B z z z2 B | B2 c d2 G | A3 G2 z | z G A B A G | %27
w: sur leurs man- ches|ver- tes Les|pieds noirs des fau-|cons |_ Vois|é- cuy- ers et|pa- ges|En ga- lants é- qui-|
 (A2 c) f2 z | f2 e d c d | c6- | c z z z2 z | z F G A d c | c3 A2 z | z B c d f e | d3 c3 | %35
w: pa- * ges|Sans ro- chet ni pour-|\- point |_|Tê- tes cha- pe- ron-|né- es|Trai- ner les ha- que-|né- es|
 z2 f f2 e | c2 A d3- | d (cB) (AG) F | c6- | c3 c3 | f6- | f2 z z2 z | z6 | z6 |[K:F] z6 | z6 | %46
w: Leur ar- ba-|lète au poing|_ Leur * ar- * ba-|lète |_ au|poing... |_|||||
 z6 | z6 | z6 |[K:F][K:treble] z2 z z2 F | A2 c d2 c | A3 F2 z | z B c d e d | c3 A z c | %54
w: |||Vois|bon- dir dans les|her- bes|Les le- vri- ers su-|per- bes Les|
 c2 G c2 e | c6- | c z z z2 c | c2 d e2 f | f3 A z A | d3 d c B | d3 d z d | f2 c{cd} c2 B | B6- | %63
w: chiens tra- pus cri-|er |_ En|chasse et  chasse heu-|reu- se! Al-|\- lons mon a- mou-|reu- se Le|pied dans l'é- tri-|er! |
 B z z z2 B | B2 c d2 G | A3 G2 z | z G A B A G | (A2 c) f3 | z f e d c d | c6- | c z z z2 z | %71
w: _ Oh!|sur ton front qui|pen- che|J'aime à voir ta main|blan- * che|Pei- gner tes che- veux|noirs|_|
 z F G A d c | c3 A B c | d2 z f2 e | d3 c3 | z2 f f2 e | c2 A d3- | d (cB) (AG) F | c6- | c3 c3 | %80
w: Beaux che- veux qu'on ras-|sem- ble Le ma-|tin et qu'en-|sem- ble|Nous  dé- fai-|sons les soirs|_ Nous * dé- * fai-|sons|_ les|
 f6- | f2 z z2 z |[K:F] z6 | z6 | z6 | z6 | z6 |[K:F][K:treble] z6 | z6 | z2 z z2 F | A2 c d2 c | %91
w: soirs! |_||||||||Al-|lons mon in- tré-|
 A3 F2 z | z B c d e d | c3 A2 z | c c G c2 e | c6- | c z z z2 c | c2 d e2 f | f3 A z A | %99
w: pi- de|Ta ca- va- le ra-|pi- de|Frap- pe du pied le|sol |_ Et|ton bouf- fon ba-|lan- ce Comme|
 d2 d (dc) B | d3 d z d | f2 c{cd} c2 B | B6- | B z z z2 B | B2 c d2 G | A3 G2 z | z G A B A G | %107
w: un sol- dat * sa|lan- ce Son|jo- yeux pa- ra-|sol |_ Mets|ton é- char- pe|blon- de|Sur ton é- pau- le|
 (A2 c) f z f | f2 e (dc) d | c6- | c z z z2 z | z F G A d c | c3 A2 z | z B c d f e | d3 c2 z | %115
w: ron- * de Sur|ton cor- sa- * ge|d'or|_|Et je vais, ma char-|man- te,|T'em- por- ter dans ta|man- te|
 z2 f f2 e | c2 A d3- | d (cB) (AG) F | c6- | %119
w: Comme  un en-|fant qui dort |_ Comme * un * en-|fant, |
 c A[Q:1/4=110]"^rit." d[Q:1/4=100]"^T" B[Q:1/4=90]"^T" e c |[Q:1/4=135]"^Tempo" f6- | f2 z z2 z | %122
w: _ comme un en- fant qui|dort. |_|
 z6 |[K:F] z6 | z6 | z6 | z6 | z6 |] %128
w: ||||||
V:2
!p! [Af]2"^(mouvt de chasse)" c [Af][Af][ca] | [Af]2 c"_cresc." [Af][Af][ca] | [Af]2 c [Af][Af]c | %3
 [fa][fa][cf] [ac'][ac'][fa] |!f! [ec']2 g [ec'][ec'][ge'] | [ec']2 g [ec'][ec'][ge'] | %6
 [ec'][cg][cg]"_dim." [ceg]2 [gb] | ([gb][fa])[fa] ([fa][cg])[cg] | ([cg][Af])[Af]!p! z ([Ac]F) | %9
 z ([FA]C) z ([Ac]F) | z ([FA]C) z ([Ac]F) | z ([FA]C) z ([Ac]F) | z ([Bd]F) z ([Bdf]F) | %13
 z ([Ac]F) z [Acf]F |!p!"_cresc." z ([ce]G) z ([eg]c) |!f! [ec']2 g [ec'][ec'][ge'] | %16
 [ec'][cg][cg] [cg][Af][cg] |!p! z ([Acf]F) z ([FAc]C) | z ([Acf]F) z ([FAc]C) | %19
 z ([Bdf]F) z ([FB]D) | z ([Bdf]F) z ([FB]D) | z ([_EFA]C) z"_cresc." ([Acf]F) | %22
!f! [db]2 f [db][db][fd'] | [db][db][Bf] [Fd][Fd][Bf] |!p! z ([GB]D) z ([GB]D) | %25
 z ([^Fc]D) z ([GB]D) | z ([EB]C) z ([EB]C) | z ([FA]C) z ([FAc]C) | %28
!p! z"_cresc." ([FG=B]D) z ([FGB]D) |!f! [Ec]2 G [Ec][Ec][Ge] | [Ec][CG][CG] [GB][FA][CG] | %31
!p! z ([FA]C [FA]C[FA]) |!<(! (C[FA]C [FA]C[FA])!<)! |!>(! (D[FB]D [FB]D[FB])!>)! | %34
 (D[FB]D [FA]C[FA]) |!p! z ([Af]F) z ([Bf]F) |!<(! z ([cf]F) z ([df]F) | z ([Af]F) z ([=Bf]F)!<)! | %38
 z ([A,F][CA]) z ([CA][Fc]) | z ([Fc][Af]) [Be]2 z | [Af]2 c [Af][Af][ca] | [Af]2 c [Af][Af][ca] | %42
 [Af]2 c [Af][Af]c | [fa][fa][cf] [ac'][ac'][fa] |[K:F]!f! [ec']2 g [ec'][ec'][ge'] | %45
 [ec']2 g [ec'][ec'][ge'] | [ec'][cg]"_dim."[cg] [ceg]2 [gb] | ([gb][fa])[fa] ([fa][cg])[cg] | %48
 ([cg][Af])[Af]!p! z ([Ac]F) | z ([FA]C) z ([Ac]F) | z ([FA]C) z ([Ac]F) | z ([FA]C) z ([Ac]F) | %52
 z ([Bd]F) z ([Bdf]F) | z ([Ac]F) z ([Acf]F) | z"_cresc." ([ce]G) z (([eg]c)) | %55
!f! [ec']2 g [ec'][ec'][ge'] | [ec'][cg][cg]!mf! [cg]!mp![Af]!p![cg] |!p! z ([Acf]F) z ([FAc]C) | %58
 z ([Acf]F) z ([FAc]C) | z ([Bdf]F) z ([FB]D) | z ([Bdf]F) z ([FB]D) | %61
"_cresc." z ([_EFA]C)"_cresc." z ([Acf]F) |!f! [db]2 f [db][db][fd'] | [db][db][Bf] [Fd][Fd][Bf] | %64
!p! z ([GB]D) z ([GB]D) | z ([^Fc]D) z ([GB]D) | z ([=EB]C) z (([EB]C)) | z ([FA]C) z ([FAc]C) | %68
"_cresc." z ([FG=B]D) z ([FGB]D) | [Ec]2 G [Ec][Ec][Ge] | [Ec][CG][CG] [GB][FA][CG] | %71
!p! z ([FA]C [FA]C[FA]) |!<(! (C[FA]C [FA]C[FA])!<)! |!>(! (D[FB]D [FB]D[FB])!>)! | %74
 (D[FB]D [FA]C[FA]) |!p! z ([Af]F) z ([Bf]F) |!<(! z ([cf]F) z ([df]F)!<)! | z ([Af]F) z ([=Bf]F) | %78
 z ([A,F][CA]) z ([CA][Fc]) | z ([Fc][Af]) [Be]2 z | [Af]2 c [Af][Af][ca] | [Af]2 c [Af][Af][ca] | %82
[K:F] [Af]2 c [Af][Af]c | [fa][fa][cf] [ac'][ac'][fa] |!f! [ec']2 g [ec'][ec'][ge'] | %85
 [ec']2 g [ec'][ec'][ge'] | [ec'][cg][cg]"_dim." [ceg]2 [gb] | ([gb][fa])[fa] [fa][cg][cg] | %88
 ([cg][Af])[Af]!p! z ([Ac]F) | z ([FA]C) z ([Ac]F) | z ([FA]C) z ([Ac]F) | z ([FA]C) z ([Ac]F) | %92
!p! z ([Bd]F) z ([Bdf]F) | z ([Ac]F) z ([Acf]F) | z"_cresc." ([ce]G) z ([eg]c) | %95
!f! [ec']2 g [ec'][ec'][ge'] | [ec'][cg][cg] [cg][Af][cg] |!p! z ([Acf]F) z ([FAc]C) | %98
 z ([Acf]F) z ([FAc]C) | z ([Bdf]F) z ([FB]D) | z ([Bdf]F) z ([FB]D) | %101
"_cresc." z ([_EFA]C) z"_cresc." ([Acf]F) |!f! [db]2 f [db][db][fd'] | %103
 [db][db][Bf]!mf! [Fd]!mp![Fd]!p![Bf] |!p! z ([GB]D) z ([GB]D) | z ([^Fc]D) z ([GB]D) | %106
 z ([=EB]C) z ([EB]C) | z ([FA]C) z ([FAc]C) | z ([FG=B]D)"_cresc." z ([FGB]D) | %109
!f! [Ec]2 G [Ec][Ec][Ge] | [Ec][CG][CG] [GB][FA][CG] |!p! z ([FA]C [FA]C[FA]) | %112
!<(! (C[FA]C [FA]C[FA])!<)! |!>(! (D[FB]D [FB]D!>)![FB]) | (D[FB]D [FA]C[FA]) | %115
!p! z ([Af]F) z ([Bf]F) | z ([cf]F) z ([df]F) | z!<(! ([Af]F) z ([=Bf]F)!<)! | %118
 z ([A,F][CA]) z ([CA][Fc]) | z2 z [Be]2 z |!p!"^Tempo" [Af]2 c [Af][Af][ca] | %121
 [Af]2 c [Af][Af][ca] |"_dim." [Af][cf][fa] ([ac']2 [fa]) |[K:F] [cg][cf][fa] ([ac']2 [fa]) | %124
 ([cg][cf])[ca] ([cg][cf])!pp![ca] |!p! [cgc']3- [cgc'][cgc'][cgc'] | [cfa] z z!pp! [cfa] z z | %127
!pp! [cfa]3- [cfa] z z |] %128
V:3
 F,,[C,F,]F,, [C,F,]F,,[C,F,] | F,,[C,F,]F,, [C,F,]F,,[C,F,] | F,,[C,F,]F,, [C,F,]F,,[C,F,] | %3
 F,,[C,F,]F,, [C,F,]F,,[C,F,] | C,,[G,,C,]C,, [G,,C,]C,,[G,,C,] | C,,[G,,C,]C,, [G,,C,]C,,[G,,C,] | %6
 C,,[G,,C,]C,, C,C,,C, | F,,C,F,, C,C,,C, | F,,2 z [C,F,A,]2 z | F,,2 z [C,F,A,]2 z | %10
 F,,2 z [C,F,A,]2 z | F,,2 z [C,F,A,]2 z | F,,2 z [D,F,B,]2 z | F,,2 z [C,F,A,]2 z | %14
 [C,,C,]2 z [E,G,C]2 z | C,,[G,,C,]C,, [G,,C,]C,,[G,,C,] | C,,[G,,C,]C,, C,C,,C, | %17
 F,,2 z [C,F,A,]2 z | F,,2 z [C,F,A,]2 z | F,,2 z [D,F,B,]2 z | F,,2 z [D,F,B,]2 z | %21
 F,,2 z [C,F,A,]2 z | B,,[F,B,]B,, [F,B,]B,,[F,B,] | B,,[F,B,]B,, [F,B,]B,,[F,B,] | G,,2 z B,,2 z | %25
 D,2 z G,2 z | C,2 z C,,2 z | F,,2 z F,2 z | G,2 z G,,2 z | C,,[G,,C,]C,, [G,,C,]C,,[G,,C,] | %30
 C,,C,C,, C,C,,C, | F,6- | F,6- | F,6 | F,,3 F,3 | (F,,3 [G,,F,]3 | [A,,F,]3 [B,,F,]3 | %37
 [C,F,]3 [D,F,]3 | C,3) C,3 | C,2 z [CG]2 z | F,,[C,F,]F,, [C,F,]F,,[C,F,] | %41
 F,,[C,F,]F,, [C,F,]F,,[C,F,] | F,,[C,F,]F,, [C,F,]F,,[C,F,] | F,,[C,F,]F,, [C,F,]F,,[C,F,] | %44
[K:F] C,,[G,,C,]C,, [G,,C,]C,,[G,,C,] | C,,[G,,C,]C,, [G,,C,]C,,[G,,C,] | C,,[G,,C,]C,, C,C,,C, | %47
 F,,C,F,, C,C,,C, | F,,2 z [C,F,A,]2 z | F,,2 z [C,F,A,]2 z | F,,2 z [C,F,A,]2 z | %51
 F,,2 z [C,F,A,]2 z | F,,2 z [D,F,B,]2 z | F,,2 z [C,F,A,]2 z | [C,,C,]2 z [E,G,C]2 z | %55
 C,,[G,,C,]C,, [G,,C,]C,,[G,,C,] | C,,[G,,C,]C,, C,C,,C, | F,,2 z [C,F,A,]2 z | %58
 F,,2 z [C,F,A,]2 z | F,,2 z [D,F,B,]2 z | F,,2 z [D,F,B,]2 z | F,,2 z [C,F,A,]2 z | %62
 B,,[F,B,]B,, [F,B,]B,,[F,B,] | B,,[F,B,]B,, [F,B,]B,,[F,B,] | G,,2 z B,,2 z | D,2 z G,2 z | %66
 C,2 z C,,2 z | F,,2 z F,2 z | G,2 z G,,2 z | C,,[G,,C,]C,, [G,,C,]C,,[G,,C,] | C,,C,C,, C,C,,C, | %71
 F,6- | F,6- | F,6 | F,,3 F,3 | (F,,3 [G,,F,]3 | [A,,F,]3 [B,,F,]3 | [C,F,]3 [D,F,]3 | C,3) C,3 | %79
 C,3 [CG]2 z | F,,[C,F,]F,, [C,F,]F,,[C,F,] | F,,[C,F,]F,, [C,F,]F,,[C,F,] | %82
[K:F] F,,[C,F,]F,, [C,F,]F,,[C,F,] | F,,[C,F,]F,, [C,F,]F,,[C,F,] | %84
 C,,[G,,C,]C,, [G,,C,]C,,[G,,C,] | C,,[G,,C,]C,, [G,,C,]C,,[G,,C,] | C,,[G,,C,]C,, C,C,,C, | %87
 F,,C,F,, C,C,,C, | F,,2 z [C,F,A,]2 z | F,,2 z [C,F,A,]2 z | F,,2 z [C,F,A,]2 z | %91
 F,,2 z [C,F,A,]2 z | F,,2 z [D,F,B,]2 z | F,,2 z [C,F,A,]2 z | [C,,C,]2 z [E,G,C]2 z | %95
 C,,[G,,C,]C,, [G,,C,]C,,[G,,C,] | C,,[G,,C,]C,, C,C,,C, | F,,2 z [C,F,A,]2 z | %98
 F,,2 z [C,F,A,]2 z | F,,2 z [D,F,B,]2 z | F,,2 z [D,F,B,]2 z | F,,2 z [C,F,A,]2 z | %102
 B,,[F,B,]B,, [F,B,]B,,[F,B,] | B,,[F,B,]B,, [F,B,]B,,[F,B,] | G,,2 z B,,2 z | D,2 z G,2 z | %106
 C,2 z C,,2 z | F,,2 z F,2 z | G,2 z G,,2 z | C,,[G,,C,]C,, [G,,C,]C,,[G,,C,] | C,,C,C,, C,C,,C, | %111
 F,6- | F,6- | F,6 | F,,3 F,3 | (F,,3 [G,,F,]3 | [A,,F,]3 [B,,F,]3 | [C,F,]3 [D,F,]3 | C,3) C,3 | %119
 C, z"^rit." z [CG]2 z | F,,[C,F,]F,, [C,F,]F,,[C,F,] | F,,[C,F,]F,, [C,F,]F,,[C,F,] | %122
 F,, z [F,A,] ([A,C]2 [F,A,]) |[K:F] [C,G,][F,A,][F,A,] ([A,C]2 [F,A,]) | %124
 ([C,G,][F,A,])[F,A,] ([C,G,][F,A,])[F,A,] | [C,G,C]3- [C,G,C][C,G,C][C,G,C] | %126
 [F,C] z z [F,,C,F,] z z | [F,,C,F,]3- [F,,C,F,] z z |] %128
V:4
 x6 | x6 | x6 | x6 | x6 | x6 | x6 | x6 | x6 | x6 | x6 | x6 | x6 | x6 | x6 | x6 | x6 | x6 | x6 | %19
 x6 | x6 | x6 | x6 | x6 | x6 | x6 | x6 | x6 | x6 | x6 | x6 | F,,3 C,3 | A,,3 _E,3 | D,3 B,,3 | x6 | %35
 x6 | x6 | x6 | x6 | x6 | x6 | x6 | x6 | x6 |[K:F] x6 | x6 | x6 | x6 | x6 | x6 | x6 | x6 | x6 | %53
 x6 | x6 | x6 | x6 | x6 | x6 | x6 | x6 | x6 | x6 | x6 | x6 | x6 | x6 | x6 | x6 | x6 | x6 | %71
 F,,3 C,3 | A,,3 _E,3 | D,3 B,,3 | x6 | x6 | x6 | x6 | x6 | x6 | x6 | x6 |[K:F] x6 | x6 | x6 | x6 | %86
 x6 | x6 | x6 | x6 | x6 | x6 | x6 | x6 | x6 | x6 | x6 | x6 | x6 | x6 | x6 | x6 | x6 | x6 | x6 | %105
 x6 | x6 | x6 | x6 | x6 | x6 | F,,3 C,3 | A,,3 _E,3 | D,3 B,,3 | x6 | x6 | x6 | x6 | x6 | x6 | x6 | %121
 x6 | x6 |[K:F] x6 | x6 | x6 | x6 | x6 |] %128

